X:1
T:Title
%%score 1 2 3 4
L:1/8
M:3/2
K:C
V:1 treble nm="Part_1"
V:2 treble-8 nm="Part_2"
V:3 treble-8 nm="Part_3"
V:4 bass nm="Part_4"
V:1
 D4 D3 C D2 F2 | E4 D4 C4 | F4 G2 A4 F2- | FE G3 F D3 ^CCB, | D4 z2 C2 D2 E2- | E2 C2 B,4 A,4 | %6
 z2 F2 F2 F2 E3 C | D2 C2 z2 F4 E2 | C2 D3 E D4 C2 | D4 z2 D4 z2 | C4 D4 F4 | F4 D4 z2 F2- | %12
 F2 _B2 A2 G4 F2- | FEED F4 z4 | F8 D4- | D4 E8 | F3 D G2 F2 D4 | z2 F2 E3 C D3 C | A,4 B,2 C4 FE | %19
 D4 CD E4 E2- | ED D3 C C4 B,2 | C4 z2 C2 D2 E2 | F6 G4 FE | D12 | F8 F4 | A6 G2 F2 E2 | %26
 G3 FED D4 E2 | F2 E3 D C3 D E2- | ED F3 D D4 ^C2 | D12 || D3 C D2 F4 E2 | F8 z4 | F6 F2 F4 | %33
 F3 G A4 G2 A2 | F4 G3 A _B2 A2- | A2 G3 F F4 E2 | F4 z4 z4 | F4 D2 C3 D E2 | F6 G6 | A4 D4 E3 D | %40
 F2 E3 D D4 C2 | D12 || D4 F4 F4- | F2 F2 F2 F2 F2 F2 | F4 F3 EDC C2- | C2 D2 C2 F4 _B2 | %46
 A2 G3 F F4 E2 | !fermata!F12 | z12 | D4 F4 F4- | F2 F2 F4 G2 F2 | E2 C2 D4 z2 C2 | %52
 A,3 B,CB, D3 CDE | F3 EDC C2 D E2 F | E2 C2 F3 G A3 G | FE/D/ C2 A,2 z2 CD E2 | F2 D2 GF E3 D D2 | %57
 E2 F3 E D3 CCB, | D12 |] %59
V:2
 d4 f2 e2 d4 | c4 d4 e4 | z2 d4 A2 c4- | c4 A8 | F2 D2 E4 G4 | E4 e4 c4 | z4 A2 A2 A4 | %7
 B2 c2 d4 c4 | c2 G2 z2 A2 A4 | F4 G4 z2 d2 | c4 A4 d4 | A4 _B4 c2 d2 | A4 z2 _e4 c2 | c4 A4 z4 | %14
 A8 A4 | F4 G4 A4 | F4 z2 G2 F4 | A2 d2 c2 A2 A4 | z4 A4 z2 A2 | A4 B4 c4 | z12 | G4 E4 D4- | %22
 D4 d2 e4 d2 | A4 z4 z4 | c4 d6 c2 | e4 z4 z4 | z12 | d4 e4 c4 | z2 c4 A2 A4 | [^FA]12 || z12 | %31
 z12 | z12 | z12 | z12 | z12 | z12 | z12 | z12 | z12 | z12 | z12 || A4 d4 d4- | d2 d2 d2 d2 d2 d2 | %44
 d4 z2 A2 A4 | F2 A6 F2 E2 | z2 e4 c2 e4 | !fermata!d12 | z12 | A4 d4 d4- | d2 d2 d4 c4- | %51
 c2 e2 d4 e2 c2- | c2 e2 f4 d4 | z2 G2 _B2 G2 F2 D2 | E4 A8 | A2 E2 A4 c4 | d4 B4 z2 A2 | %57
 G2 c4 A2 A4- | [^FA]12 |] %59
V:3
 D12 | A4 z2 B2 A4- | A2 D3 EFG A4 | G4 D2 F2 E4 | D4 A4 _B4 | A2 F2 G4 A4 | d4 d2 d2 c4 | %7
 B2 A4 F2 A3 G | A2 G4 F2 E4 | D4 C4 D4 | F8 D4- | D4 z2 G2 A4 | d4 c2 _B4 A2 | G4 F2 A3 BcB | %14
 d8 f4- | f4 z2 c2 c4 | A3 G E4 z2 F2- | FE D2 A2 c2 z2 f2 | e3 c d3 c A4 | F2 F2 E4 C4 | %20
 G2 F4 E2 D4 | C8 z4 | z4 C4 D2 E2 | F6 G4 FE | D4 z2 A4 d2 | z2 c4 B2 A4 | G12 | A8 A4 | %28
 G2 A4 F2 E4 | D12 || F3 E F2 A2 G4 | F4 A4 c4 | z2 d4 d2 d4 | A4 d3 c B4 | A4 D2 E2 G4 | %35
 F2 _B4 A2 G4 | F12 | z12 | F4 D2 C3 D E2 | F6 G6 | A4 D4 E4 | D12 || D4 A4 A4- | %43
 A2 A2 D2 D2 D2 D2 | _B,3 C D2 d4 e2 | c2 B2 A4 d4 | c2 B4 A2 G4 | !fermata!F12 | z12 | F4 D4 D4- | %50
 D2 D2 D4 z2 A2- | A4 F2 G2 A4 | cBAG F4 _B4 | A2 d4 e3 dcB | A6 D2 F2 A2 | z2 c3 B A3 GFE | %56
 D4 E4 C2 F2 | G2 A4 F2 E4 | D12 |] %59
V:4
 A,8 A,4 | A,,4 D,3 C, A,,4 | z2 B,,2 D,4 A,,4 | C,4 z2 D,2 A,,4 | _B,,4 A,,4 G,,4 | A,,4 E,4 F,4 | %6
 D,4 D,2 D,2 A,,4 | z4 D,4 A,,4 | z2 B,,2 G,,2 D,2 A,,4 | A,3 G, E,4 F,4 | A,4 D,8 | %11
 z2 D,2 _B,,4 A,,2 D,2- | D,2 z2 D,2 _E,4 F,2 | C,4 D,4 A,4 | D,12- | D,4 C,4 A,,4 | D,4 z4 A,4- | %17
 A,4 A,,4 D,4 | C,2 A,,2 D,2 E,2 F,4 | A,4 z2 G,2 G,4 | E,2 A,4 G,2 F,4 | G,8 F,2 E,2 | %22
 A,4 C2 C4 A,2 | A,4 _B,6 A,G, | F,4 D,8 | A,,4 C,2 E,2 F,4 | E,8 z4 | D,4 A,,4 F,4 | %28
 E,2 A,,4 D,2 A,,4 | A,12 || A,3 G, A,2 C4 B,2 | C4 z2 A,6 | D,8 D,4 | D,8 D4 | E4 D4 z2 D2 | %35
 C2 D4 C2 _B,3 A, | C8 D4- | D4 F2 E2 C4 | A,6 C4 B,2 | A,4 z2 B,2 B,3 A, | F,4 A,2 A,4 G,2 | %41
 A,12 || A,4 D,4 D,4- | D,2 D,2 A,2 A,2 A,2 A,2 | _B,4 A,2 D,4 A,2- | A,2 D,2 A,,4 _B,,4 | %46
 C,2 E,4 F,2 C,4 | !fermata!D,12 | z12 | D,4 A,4 A,4- | A,2 A,2 A,4 E,2 A,,2- | A,,4 D,4 A,,4 | %52
 z4 D,2 D,4 G,2 | F,2 D,2 G,2 E,2 A,4 | z2 A,,4 D,6 | A,,12 | A,4 z2 G,4 D,2 | E,2 A,,4 D,2 A,,4 | %58
 A,12 |] %59

